!!!COM: Honegger, Arthur
!!!OTL: Monopartita for Orchestra
!!!OMV:
!!!example: 609
!!!work: Hon-42
**kern	**kern	**kern	**kern	**kern	**kern	**kern	**kern	**kern	**kern	**kern	**kern
*part12	*part11	*part10	*part9	*part8	*part7	*part6	*part5	*part4	*part3	*part2	*part1
*staff12	*staff11	*staff10	*staff9	*staff8	*staff7	*staff6	*staff5	*staff4	*staff3	*staff2	*staff1
*I"Violoncello	*I"Violin II	*I"Violin I	*I"Trumpet in Bb	*I"Trumpet in Bb	*I"Trumpet in Bb	*I"Horn in F	*I"Horn in F	*I"Clarinet in Bb	*I"Cor Anglais	*I"Oboe	*I"Flute
*I'Vc.	*I'Vln. II	*I'Vln. I	*I'Tpt.	*I'Tpt.	*I'Tpt.	*I'Hn.	*I'Hn.	*I'Cl.	*I'C. A.	*I'Ob.	*I'Fl.
*clefF4	*clefG2	*clefG2	*clefG2	*clefG2	*clefG2	*clefG2	*clefG2	*clefG2	*clefG2	*clefG2	*clefG2
*k[]	*k[]	*k[]	*k[]	*k[]	*k[]	*k[]	*k[]	*k[]	*k[]	*k[]	*k[]
*	*	*	*	*	*	*	*	*	*	*	*
*M3/4	*M3/4	*M3/4	*M3/4	*M3/4	*M3/4	*M3/4	*M3/4	*M3/4	*M3/4	*M3/4	*M3/4
*MM121	*MM121	*MM121	*MM121	*MM121	*MM121	*MM121	*MM121	*MM121	*MM121	*MM121	*MM121
=54	=54	=54	=54	=54	=54	=54	=54	=54	=54	=54	=54
2.r	(2aan	2.r	8cc	8ee-X	8ff-X	8GL 8d-X	8B-XL 8e	8ffL 8gg-X	8b-XL	8bbL 8ddd	8fffL 8ggg-X
.	.	.	8r	8r	8r	8GJ 8d-	8B-J 8e	8ffJ 8gg-	8b-J	8bbJ 8ddd	8fffJ 8ggg-
.	.	.	4r	4r	4r	8G 8d-	8B- 8e	8ff 8gg-	8b-	8bb 8ddd	8fff 8ggg-
.	.	.	.	.	.	8r	8r	8r	8r	8r	8r
.	4gg#X)	.	4r	8ee-	8ff-	8GL 8d-	8B-L 8e	8ffL 8gg-	8b-L	8bbL 8ddd	8fffL 8ggg-
.	.	.	.	8r	8r	8GJ 8d-	8B-J 8e	8ffJ 8gg-	8b-J	8bbJ 8ddd	8fffJ 8ggg-
=55	=55	=55	=55	=55	=55	=55	=55	=55	=55	=55	=55
2.r	8bbL	2.r	2.r	4r	4r	8G 8d-X	8B-X 8e	8ff 8gg-X	8b-X	8bb 8ddd	8fff 8ggg-X
.	8aaJ	.	.	.	.	8r	8r	8r	8r	8r	8r
.	4gg#X	.	.	8ee-X	8ff-X	8GL 8d-	8B-L 8e	8ffL 8gg-	8b-L	8bbL 8ddd	8fffL 8ggg-
.	.	.	.	8r	8r	8GJ 8d-	8B-J 8e	8ffJ 8gg-	8b-J	8bbJ 8ddd	8fffJ 8ggg-
.	[4gg#	.	.	4r	4r	8G 8d-	8B- 8e	8ff 8gg-	8b-	8bb 8ddd	8fff 8ggg-
.	.	.	.	.	.	8r	8r	8r	8r	8r	8r
*clefC4	*	*	*	*	*	*	*	*	*	*	*
=56	=56	=56	=56	=56	=56	=56	=56	=56	=56	=56	=56
(2gn	4gg#]	2.r	2.r	8ee-X	8ff-X	8GL 8d-X	8B-XL 8e	8ffL 8gg-X	8b-XL	8bbL 8ddd	8fffL 8ggg-X
.	.	.	.	8r	8r	8GJ 8d-	8B-J 8e	8ffJ 8gg-	8b-J	8bbJ 8ddd	8fffJ 8ggg-
.	[2gg#X	.	.	4r	4r	8G 8d-	8B- 8e	8ff 8gg-	8b-	8bb 8ddd	8fff 8ggg-
.	.	.	.	.	.	8r	8r	8r	8r	8r	8r
4fn)	.	.	.	8ee-	8ff-	8GL 8d-	8B-L 8e	8ffL 8gg-	8b-L	8bbL 8ddd	8fffL 8ggg-
.	.	.	.	8r	8r	8GJ 8d-	8B-J 8e	8ffJ 8gg-	8b-J	8bbJ 8ddd	8fffJ 8ggg-
=57	=57	=57	=57	=57	=57	=57	=57	=57	=57	=57	=57
8a-XL	4gg#_	4r	2.r	4r	4r	8G 8d-X	8B-X 8e	8ff 8gg-X	8b-X	8bb 8ddd	8fff 8ggg-X
8gJ	.	.	.	.	.	8r	8r	8r	8r	8r	8r
4f	8gg#]	2gg#X	.	8ee-X	8ff-X	8GL 8d-	8B-L 8e	8ffL 8gg-	8b-L	8bbL 8ddd	8fffL 8ggg-
.	8r	.	.	8r	8r	8GJ 8d-	8B-J 8e	8ffJ 8gg-	8b-J	8bbJ 8ddd	8fffJ 8ggg-
4f	4r	.	.	4r	4r	8G 8d-	8B- 8e	8ff 8gg-	8b-	8bb 8ddd	8fff 8ggg-
.	.	.	.	.	.	8r	8r	8r	8r	8r	8r
=58	=58	=58	=58	=58	=58	=58	=58	=58	=58	=58	=58
8eL	2.r	(2aa	2.r	8ee-X	8ff-X	8GL 8d-X	8B-XL 8e	8ffL 8gg-X	8b-XL	8bbL 8ddd	8fffL 8ggg-X
8dJ	.	.	.	8r	8r	8GJ 8d-	8B-J 8e	8ffJ 8gg-	8b-J	8bbJ 8ddd	8fffJ 8ggg-
4f	.	.	.	4r	4r	8G 8d-	8B- 8e	8ff 8gg-	8b-	8bb 8ddd	8fff 8ggg-
.	.	.	.	.	.	8r	8r	8r	8r	8r	8r
4f	.	4gg#X)	.	8ee-	8ff-	8GL 8d-	8B-L 8e	8ffL 8gg-	8b-L	8bbL 8ddd	8fffL 8ggg-
.	.	.	.	8r	8r	8GJ 8d-	8B-J 8e	8ffJ 8gg-	8b-J	8bbJ 8ddd	8fffJ 8ggg-
=59	=59	=59	=59	=59	=59	=59	=59	=59	=59	=59	=59
(2g	2.r	8bbL	2.r	4r	4r	8G 8d-X	8B-X 8e	8ff 8gg-X	8b-X	8bb 8ddd	8fff 8ggg-X
.	.	8aaJ	.	.	.	8r	8r	8r	8r	8r	8r
.	.	4gg#X	.	8ee-X	8ff-X	8GL 8d-	8B-L 8e	8ffL 8gg-	8b-L	8bbL 8ddd	8fffL 8ggg-
.	.	.	.	8r	8r	8GJ 8d-	8B-J 8e	8ffJ 8gg-	8b-J	8bbJ 8ddd	8fffJ 8ggg-
4f)	.	4gg#	.	4r	4r	8G 8d-	8B- 8e	8ff 8gg-	8b-	8bb 8ddd	8fff 8ggg-
.	.	.	.	.	.	8r	8r	8r	8r	8r	8r
=60	=60	=60	=60	=60	=60	=60	=60	=60	=60	=60	=60
8a-XL	(2cccn	(2cccn	2.r	8ee-X	8ff-X	8GL 8d-X	8B-XL 8e	8ffL 8gg-X	8b-XL	8bbL 8ddd	8fffL 8ggg-X
8gJ	.	.	.	8r	8r	8GJ 8d-	8B-J 8e	8ffJ 8gg-	8b-J	8bbJ 8ddd	8fffJ 8ggg-
4f	.	.	.	4r	4r	8G 8d-	8B- 8e	8ff 8gg-	8b-	8bb 8ddd	8fff 8ggg-
.	.	.	.	.	.	8r	8r	8r	8r	8r	8r
4f	4bb)	4bb)	.	8ee-	8ff-	8GL 8d-	8B-L 8e	8ffL 8gg-	8b-L	8bbL 8ddd	8fffL 8ggg-
.	.	.	.	8r	8r	8GJ 8d-	8B-J 8e	8ffJ 8gg-	8b-J	8bbJ 8ddd	8fffJ 8ggg-
=61	=61	=61	=61	=61	=61	=61	=61	=61	=61	=61	=61
(2e	8dddL	8dddL	2.r	4r	4r	8G 8d-X	8B-X 8e	8ff 8gg-X	8b-X	8bb 8ddd	8fff 8ggg-X
.	8cccJ	8cccJ	.	.	.	8r	8r	8r	8r	8r	8r
.	4bb	4bb	.	8ee-X	8ff-X	8GL 8d-	8B-L 8e	8ffL 8gg-	8b-L	8bbL 8ddd	8fffL 8ggg-
.	.	.	.	8r	8r	8GJ 8d-	8B-J 8e	8ffJ 8gg-	8b-J	8bbJ 8ddd	8fffJ 8ggg-
4d)	[4bb	[4bb	.	4r	4r	8G 8d-	8B- 8e	8ff 8gg-	8b-	8bb 8ddd	8fff 8ggg-
.	.	.	.	.	.	8r	8r	8r	8r	8r	8r
=62	=62	=62	=62	=62	=62	=62	=62	=62	=62	=62	=62
8fL	4bb]	4bb]	2.r	8ee-X	8ff-X	8GL 8d-X	8B-XL 8e	8ffL 8gg-X	8b-XL	8bbL 8ddd	8fffL 8ggg-X
8eJ	.	.	.	8r	8r	8GJ 8d-	8B-J 8e	8ffJ 8gg-	8b-J	8bbJ 8ddd	8fffJ 8ggg-
4d	[2bb	[2bb	.	4r	4r	8G 8d-	8B- 8e	8ff 8gg-	8b-	8bb 8ddd	8fff 8ggg-
.	.	.	.	.	.	8r	8r	8r	8r	8r	8r
4d	.	.	.	4r	4r	8GL 8d-	8B-L 8e	8ffL 8gg-	8b-L	8bbL 8ddd	8fffL 8ggg-
.	.	.	.	.	.	8GJ 8d-	8B-J 8e	8ffJ 8gg-	8b-J	8bbJ 8ddd	8fffJ 8ggg-
=	=	=	=	=	=	=	=	=	=	=	=
*-	*-	*-	*-	*-	*-	*-	*-	*-	*-	*-	*-
!!!system-decoration: [(s1,s2,s3,s4)][(s5,s6,s7,s8,s9)][(s10,s11,s12)]
!!!CDT: 1892/03/10-1955/11/27
!!!CBL: Le Havre, France
!!!CDL: Paris, France
!!!CNT: Swiss, French
!!!AGN: Orchestral; Symphonic
!!!MCN: Rosbaud, Hans
!!!MDT: 1951/06/12
!!!MGN: Orchestra de la Tonhalle
!!!MLC: Zürich, Switzerland
!!!MPD: 1951
!!!MPN:
!!!ODT: 1951
!!!PDT: 1951
!!!excerpt-start-measure: 54
!!!excerpt-end-measure: 62
!!!excerpt-start-time: 2:32
!!!excerpt-end-time: 2:42
!!!EEV: 2020/01/22
!!!ONB: Converted from MusicXML on 2020/01/22
